app/assets/icons/cyberark.svg

<svg fill="none" height="260" viewBox="0 0 260 260" width="260" xmlns="http://www.w3.org/2000/svg"><path d="m32.408 190.912 47.6697-27.965 47.8793 27.894.07 55.753zm53.8252-31.541 44.6968-26.16 44.767 26.16-44.627 26.125zm47.8798 31.505 98.662-57.7v55.789l-98.592 57.629-.07-55.753zm-50.9576-89.17 44.6966-26.1949v52.3199l-44.6966 26.16zm50.8876 26.125v-52.3199l44.767 26.1599v52.32zm-104.8876-53.9836 47.8096 27.8236v55.86l-47.6347 27.965-.1399-111.6486zm3.0778-5.4161 95.6188-55.895v55.7534l-47.7743 28.036-47.8445-27.859zm101.7748-.177v-55.718l95.514 55.8242-47.67 27.8944-47.844-27.9652zm-4.372-63.96596-105.0971 61.48806-.2449.1416-1.294 2.3009.1749 122.6931v.248l1.329 2.301 105.1321 61.24.245.141h2.623l104.957-61.381.245-.142 1.294-2.301v-63.86l-4.127-2.407-49.838 29.133v-52.319l52.776-30.8681v-4.8143l-105.342-61.45267-.245-.14159h-2.623z" fill="#fff"/></svg>

<svg xmlns="http://www.w3.org/2000/svg" version="1.1" xmlns:xlink="http://www.w3.org/1999/xlink" xmlns:svgjs="http://svgjs.dev/svgjs" width="260" height="260"><svg width="260" height="260" viewBox="0 0 260 260" fill="none" xmlns="http://www.w3.org/2000/svg">
<path d="M32.408 190.912L80.0777 162.947L127.957 190.841L128.027 246.594L32.408 190.912ZM86.2332 159.371L130.93 133.211L175.697 159.371L131.07 185.496L86.2332 159.371ZM134.113 190.876L232.775 133.176V188.965L134.183 246.594L134.113 190.841V190.876ZM83.1554 101.706L127.852 75.5111V127.831L83.1554 153.991V101.706ZM134.043 127.831V75.5111L178.81 101.671V153.991L134.043 127.831ZM29.1554 73.8474L76.965 101.671V157.531L29.3303 185.496L29.1904 73.8474H29.1554ZM32.2332 68.4313L127.852 12.5363V68.2897L80.0777 96.3257L32.2332 68.4667V68.4313ZM134.008 68.2543V12.5363L229.522 68.3605L181.852 96.2549L134.008 68.2897V68.2543ZM129.636 4.28834L24.5389 65.7764L24.294 65.918L23 68.2189L23.1749 190.912V191.16L24.5039 193.461L129.636 254.701L129.881 254.842H132.504L237.461 193.461L237.706 193.319L239 191.018V127.158L234.873 124.751L185.035 153.884V101.565L237.811 70.6969V65.8826L132.469 4.42993L132.224 4.28834H129.601H129.636Z" fill="white"></path>
</svg><style>@media (prefers-color-scheme: light) { :root { filter: contrast(1) brightness(0.1); } }
@media (prefers-color-scheme: dark) { :root { filter: none; } }
</style></svg>
